src/images/icons/twitter.svg

<?xml version="1.0" encoding="utf-8"?>
<svg width="30px" height="30px" viewBox="0 0 30 30" version="1.1" xmlns:xlink="http://www.w3.org/1999/xlink" xmlns="http://www.w3.org/2000/svg">
  <defs>
    <filter id="filter_1">
      <feColorMatrix in="SourceGraphic" type="matrix" values="0 0 0 0 1 0 0 0 0 1 0 0 0 0 1 0 0 0 1 0" color-interpolation-filters="sRGB" />
    </filter>
  </defs>
  <g id="socialmysocialtwitter" fill-opacity="1" filter="url(#filter_1)">
    <path d="M-1809 -146L-1809 -146L-1809 -116L-1839 -116L-1839 -146L-1809 -146Z" id="socialmysocialtwitter" fill="none" stroke="none" />
    <path d="M25.6501 8.09396C25.1613 8.30716 24.6539 8.47535 24.1332 8.59712C24.7069 8.06087 25.1383 7.39015 25.3816 6.6415L25.3816 6.6415C25.4511 6.42777 25.2151 6.24295 25.0189 6.35739L25.0189 6.35739C24.2946 6.77999 23.5143 7.09702 22.6998 7.29977C22.6526 7.31154 22.6038 7.3175 22.5549 7.3175C22.4065 7.3175 22.2623 7.26332 22.1489 7.16497C21.2823 6.41373 20.1677 6 19.0106 6C18.5099 6 18.0043 6.07676 17.508 6.22818C15.9701 6.69737 14.7834 7.94518 14.4111 9.48469C14.2714 10.0621 14.2336 10.6401 14.2986 11.2025C14.3061 11.2672 14.275 11.3123 14.2559 11.3334C14.2223 11.3705 14.1746 11.3918 14.1251 11.3918C14.1195 11.3918 14.1138 11.3915 14.1082 11.391C10.7418 11.0833 7.70606 9.48807 5.56026 6.89907L5.56026 6.89907C5.45084 6.76701 5.24101 6.78321 5.15379 6.93035L5.15379 6.93035C4.73359 7.63944 4.51153 8.45045 4.51153 9.27571C4.51153 10.5405 5.02812 11.7323 5.92543 12.6012C5.54809 12.5132 5.18287 12.3746 4.8436 12.1893L4.8436 12.1893C4.67947 12.0996 4.47752 12.2149 4.47522 12.3995L4.47522 12.3995C4.45172 14.2784 5.57008 15.9502 7.24542 16.703C7.21168 16.7038 7.17794 16.7042 7.14415 16.7042C6.87859 16.7042 6.6097 16.679 6.34505 16.6292L6.34505 16.6292C6.16021 16.5945 6.00493 16.767 6.06232 16.9433L6.06232 16.9433C6.6061 18.6131 8.06785 19.844 9.8171 20.1235C8.36533 21.0821 6.67471 21.5877 4.9151 21.5877L4.36655 21.5874C4.19753 21.5874 4.05458 21.6957 4.01151 21.8568C3.96909 22.0154 4.04724 22.1827 4.19136 22.2651C6.17415 23.4001 8.43581 24 10.7328 24C12.7434 24 14.6242 23.6075 16.3229 22.8335C17.8802 22.124 19.2564 21.1097 20.4131 19.8188C21.4907 18.6164 22.3334 17.2282 22.9176 15.693C23.4745 14.2296 23.7689 12.6682 23.7689 11.1774L23.7689 11.1064C23.7688 10.867 23.8789 10.6418 24.0709 10.4885C24.7996 9.90655 25.4342 9.22152 25.9569 8.45245L25.9569 8.45245C26.0949 8.24939 25.8772 7.99488 25.6501 8.09396L25.6501 8.09396Z" id="Fill-1" fill="#000000" fill-rule="evenodd" stroke="none" />
  </g>
</svg>

<svg xmlns="http://www.w3.org/2000/svg" width="30" height="30">
  <defs>
    <filter id="a">
      <feColorMatrix color-interpolation-filters="sRGB" in="SourceGraphic" values="0 0 0 0 1 0 0 0 0 1 0 0 0 0 1 0 0 0 1 0"/>
    </filter>
  </defs>
  <g filter="url(#a)">
    <path fill="none" d="M-1809-146v30h-30v-30h30Z"/>
    <path fill-rule="evenodd" d="M25.65 8.094a8.811 8.811 0 0 1-1.517.503 4.642 4.642 0 0 0 1.249-1.955c.07-.214-.167-.399-.363-.285a8.834 8.834 0 0 1-2.32.943.62.62 0 0 1-.55-.135A4.789 4.789 0 0 0 19.01 6c-.501 0-1.007.077-1.503.228-1.538.47-2.725 1.717-3.097 3.257a4.897 4.897 0 0 0-.112 1.718.165.165 0 0 1-.043.13.177.177 0 0 1-.148.058A12.498 12.498 0 0 1 5.56 6.899a.25.25 0 0 0-.406.031c-.42.71-.642 1.52-.642 2.346 0 1.264.516 2.456 1.413 3.325a4.295 4.295 0 0 1-1.081-.412.248.248 0 0 0-.369.21c-.023 1.88 1.095 3.551 2.77 4.304a4.271 4.271 0 0 1-.9-.074.246.246 0 0 0-.283.314c.544 1.67 2.006 2.901 3.755 3.18a8.856 8.856 0 0 1-4.902 1.465h-.548a.362.362 0 0 0-.355.269.367.367 0 0 0 .18.408A13.185 13.185 0 0 0 10.731 24c2.011 0 3.892-.392 5.59-1.166a12.327 12.327 0 0 0 4.091-3.015 13.173 13.173 0 0 0 2.505-4.126c.556-1.463.85-3.025.85-4.516v-.07c0-.24.11-.465.303-.618a9.278 9.278 0 0 0 1.886-2.037c.138-.203-.08-.457-.307-.358Z"/>
  </g>
</svg>
